X:1
T:Title
%%score { ( 1 4 ) | ( 2 3 ) }
L:1/8
M:6/8
K:Eb
V:1 treble nm="Grand Piano"
V:4 treble 
V:2 bass 
V:3 bass 
V:1
 z3 z2[Q:1/4=90] [GB] | [GB]c[EGB] [B,EG][B,FA][C_G=A] | [EGB]2 [Ge] [Ge]2 [Bd] | c=Bc e2 [EAc] | %4
[M:5/8] [GB]-[GB]- [GB]3 |[M:1/8] [GB] |[M:3/4] [GB][Ac] [GB][FA] [GB][FA] | %7
 [EG]2 [GB] [Ge]2 [Ge] | [Fd]c B d2 c |[M:5/8] [B,DB]-[B,DB]- [B,DB]3 |[M:1/8] B/B/ | %11
[M:3/4] [Ge]4 z2 | [GB]4 z2 | [FA][FA] [FA][FA] [EG][DF] |[M:5/8] [EG]3 z2 |[M:1/8] [EBe]/[EBe]/ | %16
[M:3/4] [ce]2- [Ec-e-][Ece] [EBd][EAc] | [GB]2 [GB][GB] AG | FF F B2 c |[M:5/8] d-d- d3 | %20
[M:1/8] d/d/ |[M:3/4] [Ge]2 [Ac] [GB]2 [Be]/[Be]/ | [ce]2 c c2 c/c/ | B2 Bd c[Ad] | %24
[M:5/8] [Ge]-[Ge]- [Ge]3 |] %25
V:2
 z3 z2 [E,B,] | .[E,E]3 z3 | E,2 [E,B,] [E,B,]2[K:treble] [G,E] | %3
 [A,EA][A,EA][A,EA] [A,CA]2[K:bass] [A,,A,] |[M:5/8] [E,E]-[E,E]- [E,E]3 |[M:1/8] [E,E] | %6
[M:3/4] [E,E]2 [E,B,][B,,B,] [B,,B,][B,,B,] | [E,B,]2 [E,B,] [E,B,]2 [C,C] | %8
 [D,C][E,CE] [F,D] [F,B,F]2 [F,=A,E] |[M:5/8] B,,-B,,- B,,3 |[M:1/8] B,/B,/ | %11
[M:3/4] [E,B,]2 E,E, [E,C][E,D] | [E,E]E, E,E, E,E, | %13
 [B,,B,][B,,B,] [B,,B,][B,,B,] [B,,B,][B,,B,] |[M:5/8] [E,B,]E,E, E,2 |[M:1/8] G,/G,/ | %16
[M:3/4] A,2 A,A, A,A, | [E,E]2 .[E,E]2 F[E,B,E] | %18
 [F,B,D][F,B,D] [F,B,D][K:treble] [F,DF]2 [F,=A,F] |[M:5/8] [B,F]-[B,F]- [B,F]3 | %20
[M:1/8] [B,A]/[B,A]/ |[M:3/4][K:bass] [E,B,]2 [E,E] [E,E]2 [G,E]/[G,E]/ | %22
 [A,E]2 [A,EA] [A,EA]2 [A,EA]/[A,EA]/ | [B,EG]2 [B,EG][K:bass] [B,,B,]2 [B,,B,] | %24
[M:5/8] [E,B,]-[E,B,]- [E,B,]3 |] %25
V:3
 x6 | z AE, E,E,E, | x5[K:treble] x | x5[K:bass] x |[M:5/8] x5 |[M:1/8] x |[M:3/4] x6 | x6 | x6 | %9
[M:5/8] x5 |[M:1/8] x |[M:3/4] x6 | x6 | x6 |[M:5/8] x5 |[M:1/8] x |[M:3/4] x6 | z2 z .[E,B,]3 | %18
 x3[K:treble] x3 |[M:5/8] x5 |[M:1/8] x |[M:3/4][K:bass] x6 | x6 | x3[K:bass] x3 |[M:5/8] x5 |] %25
V:4
 x6 | x6 | x6 | x6 |[M:5/8] x5 |[M:1/8] x |[M:3/4] x6 | x6 | x6 |[M:5/8] x5 |[M:1/8] x | %11
[M:3/4] z2 B,B, [Bd][Ac] | z E EE [B,FA][B,EG] | x6 |[M:5/8] z B,B, [EGB]2 |[M:1/8] x | %16
[M:3/4] E2 z2 z2 | x6 | x6 |[M:5/8] x5 |[M:1/8] x |[M:3/4] x6 | x6 | z2 z .A3 |[M:5/8] x5 |] %25

